!! 00000] TT[WS
!!!OTL: Nian gaomian
!!!ARE: Asia, China, Shanxi Yuanping
!! Ethnic Group: Han
!! WII, 100 (1)
!!!SCT: J0544
!!!YEM: Copyright 1995, estate of Helmut Schaffrath.
**kern
*ICvox
*Ivox
*M2/4
*k[b-]
*F:
{8a
8ff
8ee
8dd
=1
8a
8ff
8ee
8dd
=2
8ff
8cc
8dd
8cc
=3
8dd
8cc
8a
8ff
=4
8ee
8dd
8ff
[8cc
=5
8cc]
8dd
4cc}
=6
{8ff
8cc
4ff
=7
8gg
8ff
8ee
8dd
=8
8cc
8dd
4ff
=9
8.ff
16a
8a
8g
=10
8f
8g
4f}
=11
{8cc
8b-
8a
8g
=12
16a
16a
16a
16g
4f
=13
8.cc
16dd
4ff
=14
4cc
4b-
=15
8a
16a
16g
8a
16g
16g
=16
8f
8g
4f}
==
!!!AGN: Xiaodiao. Qingge, Sichun
!!!ONB: ESAC (Essen Associative Code) Database: CHINA
!!!AMT: simple duple
!!!AIN: vox
!!!EED: Helmut Schaffrath
!!!EEV: 1.0
*-
!!!ONB: Tied note syntax fixed by Craig Sapp, 2004/05/03/
